X:3
T:Saw Ye John Acoming
M:4/4
L:1/8
R:Air
S:Henry Livingston’s manuscript copybook (late 18th century)
Z:AK/Fiddler’s Companion
K:Bmin
B3c B2B2 | f2d2d2b2 | B3cB2B2 | f2d4d2 |
B3cB2B2 | f2d2d2b2 | B3cB2B2 | f2d4d2 |
f2b2b2a2 | g2f2e2d2 | g2b2b2a2 | g2f4e2 |
b3ag2f2 | g2f2e2d2 | B3cB2B2 | f2d4 z2 ||

